X:1
T:Emilie, 10.10.10.10
T:Emilie, 10.10.10.10
T:John Wesley Baume, 1880
T:Public Domain Courtesy of the Cyber Hymnal™
C:John Wesley Baume, 1880
Z:Public Domain
Z:Courtesy of the Cyber Hymnal™
%%score ( 1 2 ) ( 3 4 )
L:1/8
M:4/4
K:Db
V:1 treble 
V:2 treble 
V:3 bass 
V:4 bass 
V:1
 [DF]4 [DF]2 [DF]2 | [CA]6 D2 | C2 D2 [CE]2 [DF]2 | [EG]4 [DF]4 | [DF]4 [EF]2 [EF]2 | [Dd]4 [FB]4 | %6
 [EA]2 [E=G]2 [DF]2 [DG]2 | [CA]6 z2 | [FB]4 [Gc]2 [Gd]2 | [Ge]6 [Ad]2 | [Ac]2 [GB]2 [FA]2 [EG]2 | %11
 [DF]4 E4 | [=DF]4 [DG]2 [DA]2 | [=DA]4 [EG]4 | [DF]2 [B,D]2 E3 [A,D] | [A,D]8 |] %16
V:2
 x8 | x6 D2 | C2 D2 x4 | x8 | x8 | x8 | x8 | x8 | x8 | x8 | x8 | x4 E4 | x8 | x8 | x4 D2 C x | %15
 x8 |] %16
V:3
 [D,A,]4 [D,A,]2 [D,A,]2 | [E,G,]6 [F,A,]2 | [G,A,]2 [F,A,]2 [E,A,]2 [D,A,]2 | A,8 | %4
 [D,A,]4 [C,=A,]2 [C,A,]2 | [B,,B,]4 [D,B,]4 | [E,C]2 [E,B,]2 [E,A,]2 [E,B,]2 | A,6 z2 | %8
 [A,=D]4 [A,E]2 [A,_D]2 | [A,C]6 [F,D]2 | [G,D]2 [G,D]2 [A,D]2 [=A,C]2 | [B,D]2 [=G,B,]2 [A,C]4 | %12
 [B,,A,]4 [B,,G,]2 [B,,F,]2 | [E,_C]4 [E,B,]4 | [A,,A,]2 [A,,=G,]2 [A,,_G,]3 [D,F,] | [D,F,]8 |] %16
V:4
 x8 | x8 | x8 | (C,4 D,4) | x8 | x8 | x8 | A,6 x2 | x8 | x8 | x8 | x8 | x8 | x8 | x8 | x8 |] %16

